X: 192
T: Soultrane
C:Tadd Dameron
M:4/4
L:1/4
Q:1/4=80
%%staves (chords melody)
K:Eb
P: Intro
V:chords
"Ebmaj7"x2 x2 | "Abm7"x2 x2 | "Gm7"x2 "C7"x2 | "Fm7"x2 "Bb7"x2 ||
V:melody
x2 x2 | x2 x2 | x2 x2 | x2 x2 ||
P: A
V:chords
"Ebmaj7"x2 x2 | "Gm7b5"x2 "C7"x2 | "Fm7"x2 x2 | "Abm7"x2 "Db7"x2 |
"Abm7"x2 "Db7"x2 | "Ebmaj7"x"G7"x "C7"x2 | "F7b5"x2 "Bb7"x2 | "Gm7"x"C7"x"Fm7"x"Bb7"x ||
V:melody
z/D/ (3E/G/B/ d>c | _D3 z/c//B// | C3 z/B//A// | _C4 |
z/_C/ E/_G/ BA | G2A2 | F2G2 | B4 ||
P: A
V:chords
"Ebmaj7"x2 x2 | "Gm7b5"x2 "C7"x2 | "Fm7"x2 x2 | "Abm7"x2 "Db7"x2 |
"Abm7"x2 "Db7"x2 | "Ebmaj7"x"G7"x "C7"x2 | "F7b5"x2 "Bb7"x2 | "Eb6"x2"Am7b5"x"D7"x ||
V:melody
z/D/ (3E/G/B/ d>c | _D3 z/c//B// | C3 z/B//A// | _C4 |
z/_C/ E/_G/ BA | G2A2 | F2G2 | E2ED ||
P: B
V:chords
"Gm7"x2 x2 | "Am7b5"x2 "D7"x2 | "Gm7"x2 x2 | "C7"x2 "F#m7"x"B7"x |
"Bbmaj7"x2 "Gm7"x2 | "Cm7"x2 "F7"x2 | "Fm7/Bb"x2 "Bbdim7"x2 | "B7b5"x2 "Bb7"x2 ||
V:melody
D- (3D/G/B/ d- (3d/c/B/ | c3 z/c/ | (3BBB GB | D4 |
z/D/ E/F/ G=A/B/ | c2>>d2 | BB2- B/A//G// | F4 ||
P: A
V:chords
"Ebmaj7"x2 x2 | "Gm7b5"x2 "C7"x2 | "Fm7"x2 x2 | "Abm7"x2 "Db7"x2 |
"Abm7"x2 "Db7"x2 | "Ebmaj7"x"G7"x "C7"x2 | "F7b5"x2 "Bb7"x2 | !coda!"Eb6"x2"T.A."x2 |]
V:melody
z/D/ (3E/G/B/ d>c | _D3 z/c//B// | C3 z/B//A// | _C4 |
z/_C/ E/_G/ BA | G2A2 | F2G2 | E4 |]
!coda!
V:chords
"Am7b5"x2 "D7"x2 | "Gm7"x2 "C7"x2 | "Fm7"x2 "Emaj7"x2 | "Eb6"x2 x2 ||
V:melody
E4- | E4- | E4- | E4 ||


